Obsidian/status/16s/laptopconnected.svg

<svg height="16" width="16" xmlns="http://www.w3.org/2000/svg"><path d="m2 1c-1.108 0-2 .892-2 2v8c0 1.108.892 2 2 2h-2v1c0 .554.892 1 2 1h12c1.108 0 1.608-.608 2-1v-1h-2c1.108 0 2-.892 2-2v-8c0-1.108-.892-2-2-2zm5 1h2v.5h-2zm-4 1h10v8h-10zm3 10h4v.5h-4z" fill="#d3dae3"/></svg>

<svg xmlns="http://www.w3.org/2000/svg" width="16" height="16" version="1.1">
 <defs>
  <style id="current-color-scheme" type="text/css">
   .ColorScheme-Text { color:#d3dae3; } .ColorScheme-Highlight { color:#5294e2; }
  </style>
 </defs>
 <path style="fill:currentColor" class="ColorScheme-Text" d="M 2,1 C 0.892,1 0,1.892 0,3 V 11 C 0,12.108 0.892,13 2,13 H 0 V 14 C 0,14.554 0.892,15 2,15 H 14 C 15.108,15 15.608,14.392 16,14 V 13 H 14 C 15.108,13 16,12.108 16,11 V 3 C 16,1.892 15.108,1 14,1 Z M 7,2 H 9 V 2.5 H 7 Z M 3,3 H 13 V 11 H 3 Z M 6,13 H 10 V 13.5 H 6 Z"/>
</svg>
